X:36
T:P�rraig's Jigs in A
C:P�rraig was a visitor to sessions at ceol Aneas, Chrtistchurch and Dunedin in June 2016
T:The Rambler
R: jig
M: 6/8
L: 1/8
K: Amaj
|: EFE E2 A|FEC E2 e|fec ABc|dcd BAF|
|EFE E2 A|FEC E2 e|fec ABc|1 BcB A2 F :|2 BcB Acd||
|: ecB Ace|aff faf|ece fec|cBA Bcd|
|ecB Ace|aff faf|ece fec|1 BcB Aee:|2 BcB (3ABA F||
T: Health To The Ladies
R: jig
M: 6/8
L: 1/8
K: Amaj
f|ecA BAF|AFE EFA|Bdc BAB|cBB B2f|
ecA BAF|AFE EFA|Bdc BAB|cAA A2:|:
A|cee dff|cee ecA|cee dff|ecA B2A|
cee dff|cee ecA|Bdc BAB|cAA A2:|

